svgs/duotone/hand-love.svg

<svg xmlns="http://www.w3.org/2000/svg" viewBox="0 0 512 512"><!-- Font Awesome Pro 6.0.0-alpha2 by @fontawesome - https://fontawesome.com License - https://fontawesome.com/license (Commercial License) --><defs><style>.fa-secondary{opacity:.4}</style></defs><path d="M448 64C430.312 64 416 78.328 416 96V320C416 355.344 387.344 384 352 384C332.775 384 315.732 375.346 304 361.926C292.268 375.346 275.225 384 256 384C220.656 384 192 355.344 192 320V32C192 14.328 177.688 0 160 0S128 14.328 128 32V336C128 338.646 128.279 341.223 128.396 343.842L68.281 283.719C60.469 275.906 50.234 272 40 272C17.198 272 0 290.642 0 311.994C0 322.23 3.906 332.469 11.719 340.281L134.219 462.797C165.938 494.531 208.125 512 253.031 512H304C401.031 512 480 433.047 480 336V96C480 78.328 465.688 64 448 64Z" class="fa-secondary"/><path d="M352 224C334.312 224 320 238.328 320 256V320C320 337.672 334.312 352 352 352S384 337.672 384 320V256C384 238.328 369.688 224 352 224ZM256 192C238.312 192 224 206.328 224 224V320C224 337.672 238.312 352 256 352S288 337.672 288 320V224C288 206.328 273.688 192 256 192Z" class="fa-primary"/></svg>

<svg xmlns="http://www.w3.org/2000/svg" viewBox="0 0 512 512"><!--! Font Awesome Pro 6.3.0 by @fontawesome - https://fontawesome.com License - https://fontawesome.com/license (Commercial License) Copyright 2023 Fonticons, Inc. --><defs><style>.fa-secondary{opacity:.4}</style></defs><path class="fa-primary" d="M352 224c-17.69 0-32 14.33-32 32v64c0 17.67 14.31 32 32 32s32-14.33 32-32V256C384 238.3 369.7 224 352 224zM256 192C238.3 192 224 206.3 224 224v96c0 17.67 14.31 32 32 32s32-14.33 32-32V224C288 206.3 273.7 192 256 192z"/><path class="fa-secondary" d="M448 64c-17.69 0-32 14.33-32 32v224c0 35.34-28.66 64-64 64c-19.22 0-36.27-8.654-48-22.07C292.3 375.3 275.2 384 256 384c-35.34 0-64-28.66-64-64V32c0-17.67-14.31-32-32-32S128 14.33 128 32l-.0004 304c0 2.646 .2797 5.213 .3969 7.832L68.28 283.7C60.47 275.9 50.23 272 40 272C17.2 272 0 290.6 0 311.1c0 10.24 3.906 20.47 11.72 28.29l122.5 122.5C165.9 494.5 208.1 512 253 512h50.89C400.9 512 480 432.1 480 335.9V96C480 78.33 465.7 64 448 64z"/></svg>
